X:1
T:Marching with the Heroes
T:Marching with the Heroes
T:Adam Geibel
T:William George Tarrant, 1890
T:Public Domain Courtesy of the Cyber Hymnal™
T:Public Domain Courtesy of the Cyber Hymnal™
C:Adam Geibel
Z:Public Domain
Z:Courtesy of the Cyber Hymnal™
%%score ( 1 2 ) ( 3 4 )
L:1/8
Q:1/4=113
M:4/4
K:G
V:1 treble 
V:2 treble 
V:3 bass 
V:4 bass 
V:1
 [B,DB]2 [B,DB]2 [B,DB]2 (AG) | [B,E]4 [B,D]4 | [B,D]2 (EF) [B,A]2 [B,G]2 | [CF]6 z2 | %4
w: 1.~March- ing with the *|he- roes,|Com- rades * of the|strong,|
w: 2.~Glo- ry to the *|he- roes,|Who in * days of|old,|
w: 3.~So we sing the *|sto- ry|Of the * brave and|true,|
 [CFc]2 [CFc]2 [CFc]2 (BA) | [CF]4 [CE]4 | [CD]2 [CD]2 [CDA]2 [CD^A]2 | [B,DB]6 z2 | %8
w: Lift we hearts and *|voic- es|As we march a-|long;|
w: Trod the path of *|du- ty,|Faith- ful, wise and|bold;|
w: Till a- mong the *|he- roes|We are he- roes,|too;|
 [DBd]2 [DBd]2 [D^Gd]2 (cB) | [EAc]4 [EAc]4 | [DAc]2 [DGc]2 [DFc]2 (BA) | [DGB]6 z2 | %12
w: O the joy- ful *|mu- sic|All in cho- rus *|raise!|
w: For the right un- *|flinch- ing,|Strong the weak to *|save,|
w: Loy- al to our *|cap- tain|Like the men of *|yore,|
 [A,DA]2 [A,DA]2 [^CGA]2 [CGA]2 | [DFAd]2 A2 F2 D2 | [A,DA]4 [^CEA]4 | ([CEA]4 [CD]4) || %16
w: Theirs the song of|tri- umph, Ours the|song of|praise. *|
w: War- riors all and|free- men, Fight- ing|for the|slave. *|
w: March- ing with the|he- roes, On- ward|ev- er-|more. *|
"^Refrain" [Dd]4 [DB]4 | [B,B]2 (AG) [CE]2 [CD]2 | [B,G]2 (FG) [^CB]2 [CA]2 | [DA]8 | %20
w: ||||
w: March- ing|with the * he- roes,|Com- rades * of the|strong,|
w: ||||
 [DG]3 [DG] [DB]2 [=Fd]2 | (d2 c2) (d2 e2) | [GB]2 [GB]2 [DFA]3 [DG] | [DG]6 z2 |] %24
w: ||||
w: Lift we hearts and|voic- * es *|As we march a-|long.|
w: ||||
V:2
 x6 [B,D]2 | x8 | x2 B,2 x4 | x8 | x6 [CF]2 | x8 | x8 | x8 | x6 [D^G]2 | x8 | x6 [DF]2 | x8 | x8 | %13
 x8 | x8 | x8 || x8 | x2 B,2 x4 | x2 B,2 x4 | x8 | x8 | E4 E4 | x8 | x8 |] %24
V:3
 G,2 [D,G,]2 [B,,G,]2 [G,,G,]2 | (G,2 ^C,2) [G,,D,]4 | [G,,D,]2 [D,,D,]2 [G,,D,]2 [D,,D,]2 | %3
w: ~ ~ ~ ~|~ * ~|~ ~ ~ ~|
 (D,2 D,2 F,2 A,2) | [D,F,]2 [D,A,]2 [D,F,]2 [A,,D,]2 | (A,2 E,2) [D,F,]4 | %6
w: ~ * * *|~ ~ ~ ~|~ * ~|
 [D,F,]2 [D,F,]2 F,2 D,2 | (D,2 G,,2 B,,2 D,2) | [G,,G,]2 [=F,,=F,]2 [E,,E,]2 [E,,E,]2 | %9
w: ~ ~ ~ ~|~ * * *|~ ~ ~ ~|
 [A,,A,]2 [B,,B,]2 [A,,A,]2 [G,,G,]2 | [F,,F,]2 [E,,E,]2 [D,,D,]2 [D,,D,]2 | D,8 | %12
w: ~ ~ ~ ~|~ ~ ~ ~|~|
 [F,,F,]2 [F,,F,]2 [E,,E,]2 [E,,E,]2 | [D,,D,]2 [A,,A,]2 [F,,F,]2 [D,,D,]2 | [A,,F,]4 [A,,G,]4 | %15
w: ~ ~ ~ ~|~ ~ ~ ~|~ ~|
 ([D,G,]4 [D,F,]4) || [G,B,]2 [D,B,]2 [G,B,]2 [D,B,]2 | [G,,D,]2 [G,,D,]2 [G,,E,]2 [G,,F,]2 | %18
w: ~ *|March- ing, march- ing||
 [G,,G,]2 [G,,G,]2 [G,,G,]2 [G,,G,]2 | F,8 | [B,,G,]3 [B,,G,] [G,,G,]2 [B,,G,]2 | [C,G,]4 [C,G,]4 | %22
w: ||||
 [D,D]2 [D,D]2 [D,C]3 [G,B,] | [G,B,]6 z2 |] %24
w: ||
V:4
 G,2 x6 | G,,4 x4 | x8 | A,,8 | x8 | A,,4 x4 | x4 F,2 D,2 | G,,8 | x8 | x8 | x8 | %11
 (G,,2 D,2 B,,2 G,,2) | x8 | x8 | x8 | x8 || x8 | x8 | x8 | (D,2 E,2 D,2 C,2) | x8 | x8 | x8 | %23
 x8 |] %24

